usr/share/icons/biglinux-icons-material/16/actions/text-frame-link.svg

<svg xmlns="http://www.w3.org/2000/svg" viewBox="0 0 16 16"><path d="M2 2v12h5v-1H3V3h4V2H2zm7 0v12h5V2H9zm1 1h3v10h-3V3zM4 4v1h3V4H4zm0 2v1h2V6H4zm0 2v1h1V8H4z" style="fill:currentColor;fill-opacity:1;stroke:none;color:#dedede"/><path d="M6 8v4l2-2z" style="fill:#1d99f3"/></svg>

<svg xmlns="http://www.w3.org/2000/svg" viewBox="0 0 16 16">
  <defs id="defs3051">
    <style type="text/css" id="current-color-scheme">
      .ColorScheme-Text {
        color:#363636;
      }
      </style>
  </defs>
  <path 
     style="fill:currentColor;fill-opacity:1;stroke:none" 
     d="M 2 2 L 2 14 L 7 14 L 7 13 L 3 13 L 3 3 L 7 3 L 7 2 L 2 2 z M 9 2 L 9 14 L 14 14 L 14 2 L 10 2 L 9 2 z M 10 3 L 13 3 L 13 13 L 10 13 L 10 3 z M 4 4 L 4 5 L 7 5 L 7 4 L 4 4 z M 4 6 L 4 7 L 6 7 L 6 6 L 4 6 z M 4 8 L 4 9 L 5 9 L 5 8 L 4 8 z "
     class="ColorScheme-Text"/>
  <path
     style="fill:#1d99f3"
     d="m 6,8 0,4 2,-2 z" />
</svg>
